images/themes/default/propertyicons/labelmask.svg

<svg enable-background="new 0 0 64 64" height="64" viewBox="0 0 64 64" width="64" xmlns="http://www.w3.org/2000/svg"><path d="m26.460938 11.300781c-1.857 0-3.639172.737781-4.951172 2.050781-.972711.972711-1.627347 2.20255-1.902344 3.529297-1.374026-.376483-2.937518-.589843-4.714844-.589843-7.6409999 0-12.8966718 4.593125-13.3886718 11.703125-.061.884.0475938 1.761843.3085938 2.589843-.429 1.248-.65625 2.615172-.65625 4.076172 0 3.878 1.5907813 6.404797 2.9257812 7.841797.0250001.026.0511719.052125.0761719.078125 2.238 2.335 5.193875 3.570313 8.5468749 3.570313 1.164 0 2.586188-.16236 4.117188-.69336.288.036.580047.056641.873046.056641h4.214844c.796839 0 1.559828-.139514 2.273438-.384766.714781.246155 1.478973.386719 2.277344.386719h3.882812c.034 0 .066609-.000953.099609-.001953 1.251.423 2.604157.640625 4.035157.640625 2.652604 0 5.114649-.794617 7.242187-2.310547 2.229855 1.498312 4.960821 2.308594 8.005859 2.308594 2.524 0 4.853563-.591063 6.976563-1.789063 3.717-2.132 6.025953-5.789781 6.501953-10.300781.1-.951.002516-1.898969-.271484-2.792969.214-.672.330078-1.387859.330078-2.130859 0-.465-.045813-.921328-.132813-1.361328-.046-.336-.105734-.6855-.177734-1.0625-.015-.078-.029875-.155422-.046875-.232422-.324-1.428-.845875-2.767469-1.546875-3.980469-.037-.063-.073328-.1255-.111328-.1875-2.414-3.886-6.486797-6.027344-11.466797-6.027344-2.699 0-5.146266.625766-7.322266 1.884766-.205207.120844-.435502.280493-.660156.431641-1.415337-1.004311-2.988234-1.697004-4.675781-2.044922-.774-3.023-3.514297-5.257813-6.779297-5.257813z" fill="#ebf1fe" stroke="#000" stroke-width=".8"/><g enable-background="new" fill="#2e3436"><path d="m21.912 38.043v.47h-4.216c-.295-.443-.444-.942-.444-1.499-1.367 1.423-2.884 2.137-4.547 2.137-1.425 0-2.589-.47-3.494-1.413-.703-.757-1.054-1.783-1.054-3.077 0-2.645 1.469-4.217 4.409-4.717l1.553-.277c1.256-.202 2.024-.368 2.301-.5.018-.02.064-.045.138-.082.444-.242.665-.627.665-1.164 0-1-.749-1.497-2.247-1.497-1.256 0-2.061.296-2.412.887l-.25.667-.083.5h-3.743c.239-3.458 2.375-5.188 6.406-5.188 4.085 0 6.128 1.535 6.128 4.604v8.318c0 .629.24 1.184.722 1.663.056.058.113.114.168.168zm-4.687-5.543v-1.056c-.352.168-.897.325-1.636.471l-1.332.249c-1.222.258-1.933.722-2.135 1.387l-.084.667c0 .904.452 1.477 1.359 1.719.222.055.472.082.748.082 1.607 0 2.588-.769 2.94-2.301.093-.369.14-.776.14-1.218z"/><path d="m26.46 18.3h3.883v7.182c.924-1.46 2.302-2.191 4.13-2.191 1.57 0 2.924.555 4.051 1.663.242.241.456.492.64.749 1.072 1.554 1.607 3.394 1.607 5.52 0 2.532-.731 4.574-2.19 6.129-1.165 1.201-2.532 1.803-4.103 1.803-1.833 0-3.208-.722-4.135-2.164v1.524h-3.882zm7.155 8.237c-1.224 0-2.136.656-2.747 1.969l-.333.968c-.131.536-.195 1.101-.195 1.692 0 2.015.555 3.421 1.665 4.215.463.354.996.525 1.607.525 1.184 0 2.091-.636 2.718-1.913.369-.794.555-1.709.555-2.744 0-1.887-.518-3.254-1.552-4.106-.517-.404-1.093-.606-1.718-.606z"/><path d="m56.242 29.142h-3.716c-.312-1.424-.881-2.272-1.69-2.553l-.78-.165c-.088 0-.191 0-.304 0-1.145 0-1.946.425-2.413 1.275-.497.942-.745 2.154-.745 3.634 0 2.255.607 3.705 1.83 4.353.408.221.848.334 1.33.334 1.11 0 1.901-.509 2.385-1.527.147-.332.275-.72.388-1.161h3.716c-.241 2.287-1.248 3.945-3.022 4.963-1.017.572-2.18.858-3.494.858-2.924 0-4.956-1.145-6.103-3.438-.607-1.222-.913-2.68-.913-4.383 0-3.456 1.1-5.832 3.3-7.127 1.054-.609 2.311-.915 3.771-.915 2.551 0 4.392.905 5.519 2.72.353.609.61 1.283.778 2.024.067.351.127.719.163 1.108z"/></g></svg>

<?xml version="1.0" encoding="UTF-8" standalone="no"?>
<svg
   xmlns:dc="http://purl.org/dc/elements/1.1/"
   xmlns:cc="http://creativecommons.org/ns#"
   xmlns:rdf="http://www.w3.org/1999/02/22-rdf-syntax-ns#"
   xmlns:svg="http://www.w3.org/2000/svg"
   xmlns="http://www.w3.org/2000/svg"
   xmlns:sodipodi="http://sodipodi.sourceforge.net/DTD/sodipodi-0.dtd"
   xmlns:inkscape="http://www.inkscape.org/namespaces/inkscape"
   enable-background="new 0 0 64 64"
   height="64"
   viewBox="0 0 64 64"
   width="64"
   version="1.1"
   id="svg18"
   sodipodi:docname="labelmask.svg"
   inkscape:version="0.92.4 (5da689c313, 2019-01-14)">
  <metadata
     id="metadata24">
    <rdf:RDF>
      <cc:Work
         rdf:about="">
        <dc:format>image/svg+xml</dc:format>
        <dc:type
           rdf:resource="http://purl.org/dc/dcmitype/StillImage" />
        <dc:title></dc:title>
      </cc:Work>
    </rdf:RDF>
  </metadata>
  <defs
     id="defs22" />
  <sodipodi:namedview
     pagecolor="#ffffff"
     bordercolor="#666666"
     borderopacity="1"
     objecttolerance="10"
     gridtolerance="10"
     guidetolerance="10"
     inkscape:pageopacity="0"
     inkscape:pageshadow="2"
     inkscape:window-width="1243"
     inkscape:window-height="793"
     id="namedview20"
     showgrid="false"
     inkscape:zoom="3.6875"
     inkscape:cx="32"
     inkscape:cy="32"
     inkscape:window-x="2320"
     inkscape:window-y="139"
     inkscape:window-maximized="0"
     inkscape:current-layer="svg18" />
  <path
     style="fill:#ebf1fe;fill-opacity:1;stroke:#000000;stroke-width:0.80000001;stroke-miterlimit:4;stroke-dasharray:none;stroke-opacity:1"
     d="M 26.460938 11.300781 C 24.603938 11.300781 22.821766 12.038562 21.509766 13.351562 C 20.537055 14.324273 19.882419 15.554112 19.607422 16.880859 C 18.233396 16.504376 16.669904 16.291016 14.892578 16.291016 C 7.2515781 16.291016 1.9959062 20.884141 1.5039062 27.994141 C 1.4429062 28.878141 1.5515 29.755984 1.8125 30.583984 C 1.3835 31.831984 1.15625 33.199156 1.15625 34.660156 C 1.15625 38.538156 2.7470313 41.064953 4.0820312 42.501953 C 4.1070313 42.527953 4.1332031 42.554078 4.1582031 42.580078 C 6.3962031 44.915078 9.3520781 46.150391 12.705078 46.150391 C 13.869078 46.150391 15.291266 45.988031 16.822266 45.457031 C 17.110266 45.493031 17.402313 45.513672 17.695312 45.513672 L 21.910156 45.513672 C 22.706995 45.513672 23.469984 45.374158 24.183594 45.128906 C 24.898375 45.375061 25.662567 45.515625 26.460938 45.515625 L 30.34375 45.515625 C 30.37775 45.515625 30.410359 45.514672 30.443359 45.513672 C 31.694359 45.936672 33.047516 46.154297 34.478516 46.154297 C 37.13112 46.154297 39.593165 45.35968 41.720703 43.84375 C 43.950558 45.342062 46.681524 46.152344 49.726562 46.152344 C 52.250562 46.152344 54.580125 45.561281 56.703125 44.363281 C 60.420125 42.231281 62.729078 38.5735 63.205078 34.0625 C 63.305078 33.1115 63.207594 32.163531 62.933594 31.269531 C 63.147594 30.597531 63.263672 29.881672 63.263672 29.138672 C 63.263672 28.673672 63.217859 28.217344 63.130859 27.777344 C 63.084859 27.441344 63.025125 27.091844 62.953125 26.714844 C 62.938125 26.636844 62.92325 26.559422 62.90625 26.482422 C 62.58225 25.054422 62.060375 23.714953 61.359375 22.501953 C 61.322375 22.438953 61.286047 22.376453 61.248047 22.314453 C 58.834047 18.428453 54.76125 16.287109 49.78125 16.287109 C 47.08225 16.287109 44.634984 16.912875 42.458984 18.171875 C 42.253777 18.292719 42.023482 18.452368 41.798828 18.603516 C 40.383491 17.599205 38.810594 16.906512 37.123047 16.558594 C 36.349047 13.535594 33.60875 11.300781 30.34375 11.300781 L 26.460938 11.300781 z "
     id="path2" />
  <g
     enable-background="new"
     fill="#2e3436"
     id="g16">
    <path
       d="m21.912 38.043v.47h-4.216c-.295-.443-.444-.942-.444-1.499-1.367 1.423-2.884 2.137-4.547 2.137-1.425 0-2.589-.47-3.494-1.413-.703-.757-1.054-1.783-1.054-3.077 0-2.645 1.469-4.217 4.409-4.717l1.553-.277c1.256-.202 2.024-.368 2.301-.5.018-.02.064-.045.138-.082.444-.242.665-.627.665-1.164 0-1-.749-1.497-2.247-1.497-1.256 0-2.061.296-2.412.887l-.25.667-.083.5h-3.743c.239-3.458 2.375-5.188 6.406-5.188 4.085 0 6.128 1.535 6.128 4.604v8.318c0 .629.24 1.184.722 1.663.056.058.113.114.168.168zm-4.687-5.543v-1.056c-.352.168-.897.325-1.636.471l-1.332.249c-1.222.258-1.933.722-2.135 1.387l-.084.667c0 .904.452 1.477 1.359 1.719.222.055.472.082.748.082 1.607 0 2.588-.769 2.94-2.301.093-.369.14-.776.14-1.218z"
       id="path10" />
    <path
       d="m26.46 18.3h3.883v7.182c.924-1.46 2.302-2.191 4.13-2.191 1.57 0 2.924.555 4.051 1.663.242.241.456.492.64.749 1.072 1.554 1.607 3.394 1.607 5.52 0 2.532-.731 4.574-2.19 6.129-1.165 1.201-2.532 1.803-4.103 1.803-1.833 0-3.208-.722-4.135-2.164v1.524h-3.882zm7.155 8.237c-1.224 0-2.136.656-2.747 1.969l-.333.968c-.131.536-.195 1.101-.195 1.692 0 2.015.555 3.421 1.665 4.215.463.354.996.525 1.607.525 1.184 0 2.091-.636 2.718-1.913.369-.794.555-1.709.555-2.744 0-1.887-.518-3.254-1.552-4.106-.517-.404-1.093-.606-1.718-.606z"
       id="path12" />
    <path
       d="m56.242 29.142h-3.716c-.312-1.424-.881-2.272-1.69-2.553l-.78-.165c-.088 0-.191 0-.304 0-1.145 0-1.946.425-2.413 1.275-.497.942-.745 2.154-.745 3.634 0 2.255.607 3.705 1.83 4.353.408.221.848.334 1.33.334 1.11 0 1.901-.509 2.385-1.527.147-.332.275-.72.388-1.161h3.716c-.241 2.287-1.248 3.945-3.022 4.963-1.017.572-2.18.858-3.494.858-2.924 0-4.956-1.145-6.103-3.438-.607-1.222-.913-2.68-.913-4.383 0-3.456 1.1-5.832 3.3-7.127 1.054-.609 2.311-.915 3.771-.915 2.551 0 4.392.905 5.519 2.72.353.609.61 1.283.778 2.024.067.351.127.719.163 1.108z"
       id="path14" />
  </g>
</svg>
